X: 10193
T: Dinny's Fancy
R: reel
M: 4/4
K: Gmajor
EF|G2 Bd c2 BA|G2 Bd g2 fg|ec (3ccc dB (3BBB|AGAB AGEF|
G2 Bd c2 BA|G2 Bd g2 fg|ec (3ccc dB (3BBB|ADEF G2:|
Bd|g2 fg bggg|eccc efge|dB (3BBB gedB|AGAB A2 Bd|
g2 fg bggg|eccc efge|dB (3BBB gedB|AGAB G2 Bd|
g2 fg bggg|eccc efge|dB (3BBB gedB|AGAB A2 EG|
D2 C2 D2 B,2|DGBd g2 fg|ec (3ccc dB (3BBB|ADEF G2||

